X:35
T:Dennis O’Larry. RHu.035
S:R.Hughes MS,1823,Whitchurch,Shrops.
A:Whitchurch, Shropshire
Z:Neil Brookes 2006
M:6/8
L:1/8
Q:3/8=120
R:Jig
K:G
B/A/|GAG BAG|ABA cBA|GAG Bcd|eAB cBA|!
GAG BAG|ABA cBA|dcB efg|dBGG2::!
d|gag fed|e<ge dBG|ABA Acd|ecA A2f|!
gag fed|e<ge dBG|dcB ef.g|dBGG2:|

